svg/l/AZ.svg

<svg width="32" height="24" viewBox="0 0 32 24" fill="none" xmlns="http://www.w3.org/2000/svg">
<g clip-path="url(#clip0_270_67323)">
<rect width="32" height="24" fill="white"/>
<path fill-rule="evenodd" clip-rule="evenodd" d="M0 0V24H32V0H0Z" fill="#AF0100"/>
<mask id="mask0_270_67323" style="mask-type:luminance" maskUnits="userSpaceOnUse" x="0" y="0" width="32" height="24">
<path fill-rule="evenodd" clip-rule="evenodd" d="M0 0V24H32V0H0Z" fill="white"/>
</mask>
<g mask="url(#mask0_270_67323)">
<path fill-rule="evenodd" clip-rule="evenodd" d="M0 0V8H32V0H0Z" fill="#3CA5D9"/>
<path fill-rule="evenodd" clip-rule="evenodd" d="M0 16V24H32V16H0Z" fill="#73BE4A"/>
<path fill-rule="evenodd" clip-rule="evenodd" d="M17.1399 15.024C15.7929 14.7134 14.6103 13.5539 14.6243 12C14.6374 10.5454 15.4933 9.36784 16.9747 9.03345C18.4562 8.69905 19.9922 9.33448 19.9922 9.33448C19.5839 8.42657 18.1625 7.78992 16.9966 7.79298C14.8263 7.79867 12.511 9.4555 12.4882 11.9856C12.4646 14.6086 14.961 16.0999 17.1581 16.0941C18.9194 16.0895 19.7561 14.9559 19.9297 14.4739C19.9297 14.4739 18.4869 15.3345 17.1399 15.024ZM18.0178 13.4207L19.1933 12.6027L20.3689 13.4207L19.9542 12.0499L21.0955 11.1846L19.6636 11.1554L19.1933 9.80266L18.7231 11.1554L17.2912 11.1846L18.4325 12.0499L18.0178 13.4207Z" fill="#F7FCFF"/>
</g>
</g>
<defs>
<clipPath id="clip0_270_67323">
<rect width="32" height="24" fill="white"/>
</clipPath>
</defs>
</svg>

<svg width="32" height="24" fill="none" xmlns="http://www.w3.org/2000/svg">
  <mask id="a" maskUnits="userSpaceOnUse" x="0" y="0" width="32" height="24">
    <path fill="#fff" d="M0 0h32v24H0z"/>
  </mask>
  <g mask="url(#a)">
    <path fill-rule="evenodd" clip-rule="evenodd" d="M0 0v24h32V0H0z" fill="#AF0100"/>
    <mask id="b" maskUnits="userSpaceOnUse" x="0" y="0" width="32" height="24">
      <path fill-rule="evenodd" clip-rule="evenodd" d="M0 0v24h32V0H0z" fill="#fff"/>
    </mask>
    <g mask="url(#b)" fill-rule="evenodd" clip-rule="evenodd">
      <path d="M0 0v8h32V0H0z" fill="#3CA5D9"/>
      <path d="M0 16v8h32v-8H0z" fill="#73BE4A"/>
      <path d="M17.14 15.024c-1.347-.31-2.53-1.47-2.516-3.024.013-1.455.87-2.632 2.35-2.967 1.482-.334 3.018.301 3.018.301-.408-.907-1.83-1.544-2.995-1.541-2.17.006-4.486 1.663-4.509 4.193-.023 2.623 2.473 4.114 4.67 4.108 1.761-.005 2.598-1.138 2.772-1.62 0 0-1.443.86-2.79.55zm.878-1.603l1.175-.818 1.176.818-.415-1.371 1.142-.865-1.432-.03-.47-1.352-.47 1.352-1.433.03 1.142.865-.415 1.37z" fill="#F7FCFF"/>
    </g>
  </g>
</svg>
